X: 1
T: Glise \`a Sherbrooke
T: the Big Ship
O: trad Qu\'ebec
R: reel
B: Kennedy
Z: 1997 John Chambers <jc:trillian.mit.edu>
M: C|
L: 1/8
K: G
|:\
"G"B2B2 "C"cBce | "G"d2dc BABd | "D7"cdcB A2A2 | "G"dedc BAGA |
"G"B2B2 "C"cBce | "G"d2dc BABd | "D7"cdcB AFDF | "G"GB"D"AF "G"G2G2 :|
|:\
"C"g2gf efge | "G"d2dc BGBd | "D7"c2cB ABcA | "G"dedc BGBd |
"C"gagf efge | "G"d2dc BGBd | "D7"cdcB A2F2 | "G"GB"D"AF "G"G2G2 :|
